X:53209
F:http://www.vwml.org/record/HAM/5/32/9
%%VWML:HAM-5-32-9-0
T:Ye Mourners all
T:Ye Mar'ners all
S:Mrs Marina Russell, Upwey coll. HED Hammond
O:England
A:Dorset
N:Transcribed from HAM-02-229.gif
Z:EFDSS;PJHeadford
M:5/4
L:1/4
Q:1/4=180
K:C
E|AA (AG)E|CDE2A|AB (ec)A|GA B2B|
ee dcB|AA E2E|GE D2D/D/|EE A2||
W:Transcribed from HAM-02-229.gif (Hammond's field notes)
W:[above title:] Mar'ners [to left of title:] Dorian 506 [title:] 'Ye Mourners all' W:[to left of the first stave:] No 6th
